resources/svg/pushpin-line.svg

<svg fill="currentColor" viewBox="0 0 24 24" xmlns="http://www.w3.org/2000/svg"><path d="M13.8273 1.68994L22.3126 10.1752L20.8984 11.5894L20.1913 10.8823L15.9486 15.125L15.2415 18.6605L13.8273 20.0747L9.58466 15.8321L4.63492 20.7818L3.2207 19.3676L8.17045 14.4179L3.92781 10.1752L5.34202 8.76101L8.87756 8.0539L13.1202 3.81126L12.4131 3.10416L13.8273 1.68994ZM14.5344 5.22548L9.86358 9.89631L7.0417 10.4607L13.5418 16.9608L14.1062 14.1389L18.7771 9.46812L14.5344 5.22548Z"/></svg>

<svg xmlns="http://www.w3.org/2000/svg" viewBox="0 0 24 24" fill="currentColor">
    <g>
        <path fill="none" d="M0 0h24v24H0z"/>
        <path d="M13.828 1.686l8.486 8.486-1.415 1.414-.707-.707-4.242 4.242-.707 3.536-1.415 1.414-4.242-4.243-4.95 4.95-1.414-1.414 4.95-4.95-4.243-4.242 1.414-1.415L8.88 8.05l4.242-4.242-.707-.707 1.414-1.415zm.708 3.536l-4.671 4.67-2.822.565 6.5 6.5.564-2.822 4.671-4.67-4.242-4.243z"/>
    </g>
</svg>
